SVG-Icons/Technical/Grafana/grafana-icon-card-video.svg

<svg width="28" height="28" viewBox="0 0 28 28" fill="none" xmlns="http://www.w3.org/2000/svg">
<circle cx="14" cy="14" r="14" fill="#FDE8BE"/>
<path fill-rule="evenodd" clip-rule="evenodd" d="M10.943 20.01C10.6714 20.1625 10.3356 20.1634 10.0631 20.0124C9.79068 19.8614 9.62345 19.5817 9.62501 19.2796V8.71677C9.62481 8.41661 9.79115 8.13909 10.0615 7.98851C10.3319 7.83794 10.6653 7.83711 10.9365 7.98636L20.5586 13.2678C20.8316 13.4175 21 13.6963 21 13.9982C21 14.3001 20.8316 14.5788 20.5586 14.7286L10.943 20.01Z" fill="#ECA313"/>
</svg>

<svg xmlns="http://www.w3.org/2000/svg" fill="none" viewBox="0 0 28 28"><circle cx="14" cy="14" r="14" fill="#FDE8BE"/><path fill="#ECA313" fill-rule="evenodd" d="M10.943 20.01a.907.907 0 0 1-.88.002.836.836 0 0 1-.438-.732V8.717c0-.3.166-.578.437-.728a.907.907 0 0 1 .875-.003l9.622 5.282c.273.15.441.428.441.73s-.168.58-.441.73l-9.616 5.282Z" clip-rule="evenodd"/></svg>
